public/img/routes/home.svg

<?xml version="1.0" encoding="UTF-8"?>
<svg width="500px" height="500px" viewBox="0 0 500 500" version="1.1" xmlns="http://www.w3.org/2000/svg" xmlns:xlink="http://www.w3.org/1999/xlink">
    <!-- Generator: Sketch 46.2 (44496) - http://www.bohemiancoding.com/sketch -->
    <title>web/routes/home</title>
    <desc>Created with Sketch.</desc>
    <defs></defs>
    <g id="Web" stroke="none" stroke-width="1" fill="none" fill-rule="evenodd">
        <g id="home" fill="#000000">
            <path d="M0,263.574468 C26.241266,223.148734 52.6594415,194.780223 79.2553191,178.468085 C105.851197,162.155947 132.623979,154 159.574468,154 C181.560394,154 200.709138,158.255277 217.021277,166.765957 C233.333415,175.276638 248.404186,184.496404 262.234043,194.425532 C276.063899,204.35466 289.184335,213.574426 301.595745,222.085106 C314.007154,230.595787 327.6595,234.851064 342.553191,234.851064 C357.446883,234.851064 371.099229,229.531968 383.510638,218.893617 C395.922048,208.255266 407.801362,193.007191 419.148936,173.148936 L500,235.914894 C473.758734,276.340628 447.340559,304.709138 420.744681,321.021277 C394.148803,337.333415 367.376021,345.489362 340.425532,345.489362 C318.439606,345.489362 299.290862,341.234085 282.978723,332.723404 C266.666585,324.212723 251.595814,314.992957 237.765957,305.06383 C223.936101,295.134702 210.815665,285.914936 198.404255,277.404255 C185.992846,268.893574 172.3405,264.638298 157.446809,264.638298 C143.26234,264.638298 129.787298,269.957394 117.021277,280.595745 C104.255255,291.234096 92.1986383,306.48217 80.8510638,326.340426 L0,263.574468 Z" id="~"></path>
        </g>
    </g>
</svg>

<svg width="500" height="500" viewBox="0 0 500 500" xmlns="http://www.w3.org/2000/svg"><title>web/routes/home</title><path d="M0 263.574c26.241-40.425 52.66-68.794 79.255-85.106C105.851 162.156 132.624 154 159.575 154c21.985 0 41.134 4.255 57.446 12.766 16.312 8.51 31.383 17.73 45.213 27.66 13.83 9.929 26.95 19.148 39.362 27.66 12.411 8.51 26.063 12.765 40.957 12.765 14.894 0 28.546-5.319 40.958-15.957 12.411-10.639 24.29-25.887 35.638-45.745L500 235.915c-26.241 40.426-52.66 68.794-79.255 85.106-26.596 16.312-53.369 24.468-80.32 24.468-21.985 0-41.134-4.255-57.446-12.766-16.312-8.51-31.383-17.73-45.213-27.66-13.83-9.928-26.95-19.148-39.362-27.659-12.411-8.51-26.064-12.766-40.957-12.766-14.185 0-27.66 5.32-40.426 15.958-12.766 10.638-24.822 25.886-36.17 45.744L0 263.574z" fill-rule="evenodd"/></svg>
